X:1
T:The Blood that Stained the Old Rugged Cross
T:The Blood That Stained the Old Rugged Cross
T:Albert E, Brumley, 1942 Arrangement: Larry Johnson, 2011
C:Albert E, Brumley, 1942
Z:All Rights Reserved
L:1/8
Q:1/4=80
M:3/4
K:G
V:1 treble nm="Voice"
%%MIDI program 54
V:1
 z6 | z6 | z6 | z6 | z6 | z4 Bc |"G" d3 ^A B=A | G3 B BA |"C" G4 E2 |"G" D4 DE | G3 B ^AB | d4 B2 | %12
w: |||||on the|cross of cal va|ry our bless ed|Sav ior|died gave His|life to save the|world from|
"D" A6- | A4"G" Bc | d3 ^A B=A | G3 B BA |"C" G4 F2 |"G" D4 DE | G3 B ^AB |"D7" A4 BA |"G" G6- | %21
w: loss|_ in His|pain and ag o|ny for ev ery|sin to|hide shed the|blood that stained the|old rug ged|cross|
 G4 Bc | d3 ^A B=A |"G7" G3 B BA |"C" G4 EE |"G" D4 Bc | d3 ^A B"D"=A |"Em" G4"A9" B2 |"D" A6- | %29
w: _ 'Twas His|blood His pre cious|blood that stained the|old rug ged|cross 'Twas His|love that paid the|awe ful|cost|
 A4"G" Bc | d3 ^A B=A | G4 BA |"C" G4 E2 |"G" D4 DE | G3 B ^AB |"D7" A4 BA |"G" G6- | G4 Bc | %38
w: _ O _|soul so far a|stray come and|plunge to|day in the|blood that stained the|old rug ged|cross|_ to the|
"G" d3 ^A B=A | G3 B BA |"C" G4 E2 |"G" D4 DE | G3 B ^AB | d4 B2 |"D" A6- | A4"G" Bc | d3 ^A B=A | %47
w: cross the rug ged|cross they nailed His|prec ious|hands and in|death He ful ly|paid the|cost|_ there is|par don in His|
 G3 B BA |"C" G4 F2 |"G" D4 DE | G3 B ^AB |"D7" A4 BA |"G" G4 Bc |"G" d3 ^A B=A | G3 B BA | %55
w: love for ev ery|one that|stands for the|blood that stained the|old rug ged|cross on the|cross of cal va|ry our bless ed|
"C" G4 E2 |"G" D4 DE | G3 B ^AB | d4 B2 |"D" A6- | A4"G" Bc | d3 ^A B=A | G3 B BA |"C" G4 F2 | %64
w: Sav ior|died gave His|life to save the|world from|loss|_ in His|pain and ag o|ny for ev ery|sin to|
"G" D4 DE | G3 B ^AB |"D7" A4 BA |"G" G6- | G4 Bc | d3 ^A B=A |"G7" G3 B BA |"C" G4 EE |"G" D4 Bc | %73
w: hide shed the|blood that stained the|old rug ged|cross|_ 'Twas His|blood His pre cious|blood that stained the|old rug ged|cross 'Twas His|
 d3 ^A B"D"=A |"Em" G4"A9" B2 |"D" A6- | A4"G" Bc | d3 ^A B=A | G4 BA |"C" G4 E2 |"G" D4 DE | %81
w: love that paid the|awe ful|cost|_ O _|soul so far a|stray come and|plunge to|day in the|
 G3 B ^AB |"D7" A4 BA |"G" G6- | G4 Bc |"G" d3 ^A B=A | G3 B BA |"C" G4 E2 |"G" D4 DE | G3 B ^AB | %90
w: blood that stained the|old rug ged|cross|_ what an|awe ful death He|died to par don|you and|me all a|lone in ag o|
 d4 B2 |"D" A6- | A4"G" Bc | d3 ^A B=A | G3 B BA |"C" G4 F2 |"G" D4 DE | G3 B ^AB |"D7" A4 BA | %99
w: ny He|died|_ and a|world once lost in|sin can now be|whol ly|free by the|blood that stained the|old rug ged|
"G" G6- | G4 Bc | d3 ^A B=A |"G7" G3 B BA |"C" G4 EE |"G" D4 Bc | d3 ^A B"D"=A |"Em" G4"A9" B2 | %107
w: cross|_ 'Twas His|blood His pre cious|blood that stained the|old rug ged|cross 'Twas His|love that paid the|awe ful|
"D" A6- | A4"G" Bc | d3 ^A B=A | G4 BA |"C" G4 E2 |"G" D4 DE | G3 B ^AB |"D7" A4 BA |"G" G6- | G6 | %117
w: cost|_ O _|soul so far a|stray come and|plunge to|day in the|blood that stained the|old rug ged|cross|_|
 z6 | z6 | z6 | z6 |] %121
w: ||||

